X: 53
T: AULD SWAARA
R: lament
B: Haand me doon da fiddle, 1979
Z: 2012 John Chambers <jc:trillian.mit.edu>
M: 2/4
L: 1/8
K: G
uD |\
vGG D(3D(uB,G,) | (3Du(GD) (v(3B,A,B, | G,2) {c}(u(3BAF) |\
G2G2 (3D(B,G,) | (3D(GD) (3(B,A,)B, | vDG G :|
|: uA |\
(vG/F/E/D/) ((3CEC) | ((3B,DB,) (A,>B,) | G,2 {c}((3uBAF) |\
(vG/F/E/D/) ((3CEC) | ((3B,DB,) (A,>B,) | vDG G :|
|: uD |\
(vG/F/E/)uD/ G g | ve2(ud/B/) d/(ue/f/g/) | va2 {A}(3BAF |\
(vG/F/E/)D/ G g | ve(ud/B/) (3d(gd) | vBG G :|
%%begintext align
Dis een is a lament fir fishermen wha were lost at sea ida time o'
da Haaf fishing.  Naebody ida auld days laeked to caa a dead body
be dere name.  Dey wir aye spoken aboot as "her it belanged ta me",
or "da bairn's faider".  Ivery fisherman at dat time wore next til
his skin a heavy knitted singlet caaed a jupie usually made oot o'
3 ply black wirsit.  Dis wis referred to as da swaara, or dark jupie,
so da name really means da auld swaara jupie.

I got dis t\"un fae da late Peter Fraser, wha telt me dat his
grandfaider aye said da t\"un was composed in deep sorrow, and da story
o' da jupie fae my faider.
%%endtext

%%sep 2 1 500
%%sep 1 1 500

